X:1
T:The Garden Where the Praties Grow
M:6/8
L:1/4
K:G
 z3/2 D E/2| G A/2 B G/2| D E/2 G B/2| A G/2 G ^F/2| G3/2 A- B/2| c d/2 e c/2|\
 B c/2 d B/2| A G/2 A B/2| A3/2 A B/2| c d/2 e c/2| B c/2 d B/2| A B/2 A G/2|\
 E3/2 D E/2| G A/2 B G/2| D E/2 G B/2| A3/2 G3/2| G3/2 z3/2|
